!!!COM: Gaspar van Weerbeke
!!!CDT: ~1450-~1517
!!!OTL: Mater digna Dei
!!!AGN: Motet
!!!SCT: Gas0407
!!!SCA: Gas0407
!!!voices: 4
**kern	**text	**kern	**text	**kern	**text	**kern	**text
*part4	*part4	*part3	*part3	*part2	*part2	*part1	*part1
*staff4	*staff4	*staff3	*staff3	*staff2	*staff2	*staff1	*staff1
*I"Bassus	*	*I"Tenor	*	*I"Altus	*	*I"Superius	*
*I'B	*	*I'T	*	*I'A	*	*I'S	*
*clefF4	*	*clefGv2	*	*clefGv2	*	*clefG2	*
*k[]	*	*k[]	*	*k[]	*	*k[]	*
*M2/2	*	*M2/2	*	*M2/2	*	*M2/2	*
*met(C|)	*	*met(C|)	*	*met(C|)	*	*met(C|)	*
=1	=1	=1	=1	=1	=1	=1	=1
1AA;	Ma-	1A;	Ma-	1e;	Ma-	1a;	Ma-
=2	=2	=2	=2	=2	=2	=2	=2
1E;	-ter	1B;	-ter	1e;	-ter	1g;	-ter
=3	=3	=3	=3	=3	=3	=3	=3
1F;	di-	1A;	di-	1c;	di-	1cc;	di-
=4	=4	=4	=4	=4	=4	=4	=4
1G;	-gna	1d;	-gna	1g;	-gna-	1b;	-gna
=5	=5	=5	=5	=5	=5	=5	=5
1A;	De-	1c;	De-	1e;	-De-	1a;	De-
=6	=6	=6	=6	=6	=6	=6	=6
1E;	-i,	1B;	-i,	1e;	-i,	1g;	-i,
!!LO:LB:g=original
=7	=7	=7	=7	=7	=7	=7	=7
2E	ve-	1r	.	2B	ve-	1r	.
4E	-ni-	.	.	4c	-ni-	.	.
4E	-e	.	.	4c	-e	.	.
=8	=8	=8	=8	=8	=8	=8	=8
2F	vi-	1r	.	2d	vi-	1r	.
2E	-a	.	.	4.e	-a	.	.
.	.	.	.	8d	.	.	.
=9	=9	=9	=9	=9	=9	=9	=9
2E	lux-	2G	ve-	2B	lux-	1r	.
2AA	-que	4A	-ni-	4c	-que	.	.
.	.	4A	-e	4c	di-	.	.
=10	=10	=10	=10	=10	=10	=10	=10
4GG	di-	2B	vi-	4.d	-e-	2g	ve-
4G	.	.	.	.	.	.	.
.	.	.	.	8c	.	.	.
2F	.	4.c	-a	2A	-i,	4a	-ni-
.	.	.	.	.	.	4a	-e
.	.	8B	.	.	.	.	.
=11	=11	=11	=11	=11	=11	=11	=11
4G	.	2G	.	4r	.	2b	vi-
*	*	*	*	*	*edit	*	*
2E	.	.	.	4.g	lux-	.	.
.	.	2r	.	.	.	4.cc	-a
.	.	.	.	8fL	.	.	.
4C	.	.	.	8e	.	.	.
.	.	.	.	8dJ	.	8b	.
!!LO:LB:g=original
=12	=12	=12	=12	=12	=12	=12	=12
4.C	-e-	2e	lux-	4c	-que	4g	lux-
.	.	.	.	8BL	.	2cc	-que
8D	.	.	.	8AJ	.	.	.
8EL	.	4e	-que	4G	.	.	.
8FJ	.	.	.	.	.	.	.
[4G	.	[4d	di-	[4g	di-	[4b	di-
=13	=13	=13	=13	=13	=13	=13	=13
4G]	.	4d]	.	8g]	.	4b]	.
.	.	.	.	8f	.	.	.
4A	.	4c	.	2.e	-e-	2a	-e-
2E	-i,	2B	-e-	.	.	.	.
.	.	.	.	.	.	4g#i	.
=14	=14	=14	=14	=14	=14	=14	=14
2r	.	1A	-i,	1e	-i,	1a	-i,
2AA	sis	.	.	.	.	.	.
=15	=15	=15	=15	=15	=15	=15	=15
4BB	tu-	1r	.	2r	.	1r	.
4.C	-te-	.	.	.	.	.	.
*	*	*	*	*	*Xedit	*	*
.	.	.	.	2A	sis	.	.
8BB	.	.	.	.	.	.	.
4AA	.	.	.	.	.	.	.
=16	=16	=16	=16	=16	=16	=16	=16
4GG	-la	2r	.	4B	tu-	1r	.
2AA	re-	.	.	2c	-te-	.	.
.	.	2A	sis	.	.	.	.
4A	.	.	.	8BL	.	.	.
.	.	.	.	8AJ	.	.	.
!!LO:LB:g=original
=17	=17	=17	=17	=17	=17	=17	=17
4G	.	4B	tu-	4d	.	2r	.
4E	.	4.c	-te-	4e	.	.	.
2F	.	.	.	4.c	.	2a	sis
.	.	8B	.	.	.	.	.
.	.	4A	.	.	.	.	.
.	.	.	.	8d	.	.	.
=18	=18	=18	=18	=18	=18	=18	=18
4E	-i	4G	-la	2e	-la	4b	tu-
*	*edit	*	*	*	*	*	*
4.AA	re-	4.A	re-	.	.	4.cc	-te-
.	.	.	.	2e	re-	.	.
8BBL	.	8G	.	.	.	8b	.
8C	.	4F	.	.	.	4a	.
8DJ	.	.	.	.	.	.	.
=19	=19	=19	=19	=19	=19	=19	=19
4E	.	4E	.	4c	.	4g	-la
4D	.	4F	.	4d	.	4.a	re-
2F	.	2D	.	4.A	.	.	.
.	.	.	.	.	.	8g	.
.	.	.	.	.	.	4f	.
.	.	.	.	8B	.	.	.
=20	=20	=20	=20	=20	=20	=20	=20
4G	.	4C	.	4c	.	4.e	.
4C	.	2c	.	2.g	.	.	.
.	.	.	.	.	.	8f	.
2G	.	.	.	.	.	2d	.
.	.	4B	.	.	.	.	.
=21	=21	=21	=21	=21	=21	=21	=21
1C	-i,	1c	-i,	1e	-i,	1c	-i,
!!LO:PB:g=original
=22	=22	=22	=22	=22	=22	=22	=22
4r	.	2c	dux-	2g	dux-	2e	dux-
*	*Xedit	*	*	*	*	*	*
4C	dux-	.	.	.	.	.	.
2C	-que	2c	-que	2g	-que	2e	-que
=23	=23	=23	=23	=23	=23	=23	=23
4G	co-	4B	co-	4g	co-	4d	co-
4G	-mes-	4B	-mes-	4g	-mes-	4d	-mes-
4C	-que	4c	-que	4e	-que	4e	-que
[4F	me-	[4A	me-	[4c	me-	[4f	me-
=24	=24	=24	=24	=24	=24	=24	=24
4F]	.	4A]	.	8c]L	.	4f]	.
.	.	.	.	8BJ	.	.	.
4C	.	4G	.	4c	.	2e	.
2D	.	2F	.	4.A	.	.	.
.	.	.	.	.	.	4d	.
.	.	.	.	8G	.	.	.
=25	=25	=25	=25	=25	=25	=25	=25
1G	-i,	1E	-i,	1B	-i,	1e	-i,
=26	=26	=26	=26	=26	=26	=26	=26
2E	na-	1r	.	4.B	na-	1r	.
.	.	.	.	8c	.	.	.
4F	-ta	.	.	4d	-ta	.	.
4E	.	.	.	[4e	De-	.	.
!!LO:LB:g=original
=27	=27	=27	=27	=27	=27	=27	=27
4G	De-	1r	.	4e]	.	1r	.
4A	.	.	.	8dL	.	.	.
.	.	.	.	8cJ	.	.	.
4G	.	.	.	8dL	.	.	.
.	.	.	.	8c	.	.	.
4F	.	.	.	8B	.	.	.
.	.	.	.	8AJ	.	.	.
=28	=28	=28	=28	=28	=28	=28	=28
4G	.	1r	.	4G	.	1r	.
4E	.	.	.	2c	.	.	.
2D	.	.	.	.	.	.	.
.	.	.	.	4B	.	.	.
=29	=29	=29	=29	=29	=29	=29	=29
2C	-i,	2e	na-	2c	-i,	4.g	na-
.	.	.	.	.	.	8a	.
2r	.	4d	-ta	2r	.	4b	-ta
.	.	[4e	De-	.	.	[4cc	De-
=30	=30	=30	=30	=30	=30	=30	=30
1r	.	4e]	.	1r	.	4cc]	.
.	.	8dL	.	.	.	8bL	.
.	.	8cJ	.	.	.	8aJ	.
.	.	4d	.	.	.	8bL	.
.	.	.	.	.	.	8a	.
.	.	4e	.	.	.	8g	.
.	.	.	.	.	.	8fJ	.
=31	=31	=31	=31	=31	=31	=31	=31
1r	.	4c	.	1r	.	4e	.
.	.	4d	.	.	.	2a	.
.	.	2B	.	.	.	.	.
.	.	.	.	.	.	4g#i	.
!!LO:LB:g=original
=32	=32	=32	=32	=32	=32	=32	=32
1r	.	1A	-i,	1r	.	1a	-i,
=33	=33	=33	=33	=33	=33	=33	=33
1F;	mi-	1c;	mi-	1A;	mi-	1a;	mi-
=34	=34	=34	=34	=34	=34	=34	=34
1C;	-se-	1c;	-se-	1e;	-se-	1g;	-se-
=35	=35	=35	=35	=35	=35	=35	=35
1D;	-re-	1A;	-re-	1d;	-re-	1f;	-re-
=36	=36	=36	=36	=36	=36	=36	=36
1AA;	-re	1A;	-re	1c;	-re	1e;	-re
=37	=37	=37	=37	=37	=37	=37	=37
*	*	*	*	*lig	*	*	*
1BB-i;	me-	1D;	me-	2F	me-	1d;	me-
.	.	.	.	2G;	.	.	.
*	*	*	*	*Xlig	*	*	*
=38	=38	=38	=38	=38	=38	=38	=38
1AA;	-i.	1E;	-i.	1A;	-i.	1c;	-i.
!!LO:LB:g=original
=39	=39	=39	=39	=39	=39	=39	=39
2C	Lux	2E	Lux	2G	Lux	1e	Lux
[2E	al-	4.G	al-	4E	al-	.	.
.	.	.	.	[4e	.	.	.
.	.	8A	.	.	.	.	.
=40	=40	=40	=40	=40	=40	=40	=40
2E]	.	4B	.	8e]L	.	2g	al-
.	.	.	.	8d	.	.	.
.	.	2c	.	8c	.	.	.
.	.	.	.	8BJ	.	.	.
2F	.	.	.	2A	-ma	2a	-ma
.	.	8BL	.	.	.	.	.
.	.	8AJ	.	.	.	.	.
=41	=41	=41	=41	=41	=41	=41	=41
2G	-ma	2G	-ma	4r	.	2b	di-
.	.	.	.	4g	di-	.	.
4A	di-	4c	di-	4f	.	4cc	.
4G	.	4B	.	4g	.	[4dd	.
=42	=42	=42	=42	=42	=42	=42	=42
4A	.	2c	.	4.e	-e-	4dd]	.
4c	.	.	.	.	.	2cc	-e-
.	.	.	.	8f	.	.	.
2G	-e-	2d	-e-	2g	-i,	.	.
.	.	.	.	.	.	4b	.
=43	=43	=43	=43	=43	=43	=43	=43
1C	-i,	1c	-i,	2e	di-	2cc	-i,
.	.	.	.	4e	-gna	2r	.
.	.	.	.	[4e	co-	.	.
!!LO:PB:g=original
=44	=44	=44	=44	=44	=44	=44	=44
2E	di-	1r	.	4e]	.	2g	di-
.	.	.	.	8dL	.	.	.
.	.	.	.	8cJ	.	.	.
4F	-gna	.	.	4d	.	4a	-gna
[4E	co-	.	.	4e	.	[4g	co-
=45	=45	=45	=45	=45	=45	=45	=45
4E]	.	2G	di-	4B	.	4g]	.
8DL	.	.	.	4c	.	8fL	.
8CJ	.	.	.	.	.	8eJ	.
4F	.	4A	-gna	4A	.	4f	.
4E	.	[4G	co-	4B	.	4g	.
=46	=46	=46	=46	=46	=46	=46	=46
2C	-li,	4G]	.	4.c	.	2e	-li,
.	.	8FL	.	.	.	.	.
.	.	8EJ	.	8B	.	.	.
2r	.	4F	.	4A	.	4r	.
.	.	4G	.	4G	.	4e	re-
=47	=47	=47	=47	=47	=47	=47	=47
1r	.	4E	-li,	2B	-li,	4g	-gi-
.	.	4E	re-	.	.	4g	-na
.	.	4G	-gi-	4r	.	4d	po-
.	.	4G	-na	4B	re-	4d	.
=48	=48	=48	=48	=48	=48	=48	=48
1r	.	2D	po-	4d	-gi-	4.f	.
.	.	.	.	4d	-na	.	.
.	.	.	.	.	.	8e	.
.	.	4.F	.	4.A	po-	2c	-li,
.	.	8E	.	8B	.	.	.
!!LO:LB:g=original
=49	=49	=49	=49	=49	=49	=49	=49
1r	.	4C	.	4.c	.	1r	.
.	.	4.E	.	.	.	.	.
.	.	.	.	8B	.	.	.
.	.	.	.	4G	.	.	.
.	.	8D	.	.	.	.	.
.	.	[4G	.	4B	.	.	.
=50	=50	=50	=50	=50	=50	=50	=50
2r	.	4G]	.	2A	.	2cc	me
.	.	4F#i	.	.	.	.	.
2G	me	2G	-li,	4G	-li,	2b	lin-
.	.	.	.	4g	me	.	.
=51	=51	=51	=51	=51	=51	=51	=51
4A	lin-	2c	me	4e	lin-	2a	-que-
4F	.	.	.	4f	.	.	.
4G	-que-	2B	lin-	4d	-que-	2g	-re
4E	.	.	.	4e	.	.	.
=52	=52	=52	=52	=52	=52	=52	=52
2F	-re	2A	-que-	2c	-re	2cc	no-
4G	no-	4G	-re	4r	.	4b	.
4F	.	4c	no-	4f	no-	[4a	.
=53	=53	=53	=53	=53	=53	=53	=53
4G	.	4B	.	8dL	.	4a]	.
.	.	.	.	8BJ	.	.	.
4E	.	4G	.	4c	.	2g	.
2D	.	2A	.	2d	.	.	.
.	.	.	.	.	.	4f#i	.
=54	=54	=54	=54	=54	=54	=54	=54
1E;	-li,	1G;	-li,	1B;	-li,	1g;	-li,
!!LO:LB:g=original
=55	=55	=55	=55	=55	=55	=55	=55
1r	.	1r	.	2r	.	2b	me
.	.	.	.	2e	me	4b	ti-
.	.	.	.	.	.	4b	-bi
=56	=56	=56	=56	=56	=56	=56	=56
1r	.	1r	.	4e	ti-	2cc	vir-
.	.	.	.	4e	-bi	.	.
.	.	.	.	2f	vir-	2a	-go
=57	=57	=57	=57	=57	=57	=57	=57
1r	.	1r	.	2d	-go	2b	pi-
.	.	.	.	2e	pi-	8bL	.
.	.	.	.	.	.	8a	.
.	.	.	.	.	.	8g	.
.	.	.	.	.	.	8fJ	.
=58	=58	=58	=58	=58	=58	=58	=58
1r	.	1r	.	8eL	.	1g	-a,
.	.	.	.	8d	.	.	.
.	.	.	.	8c	.	.	.
.	.	.	.	8BJ	.	.	.
.	.	.	.	2c	-a,	.	.
=59	=59	=59	=59	=59	=59	=59	=59
1r	.	1r	.	2c	ge-	2e	ge-
.	.	.	.	4c	-ni-	4e	-ni-
.	.	.	.	[4c	-trix	[4e	-trix
=60	=60	=60	=60	=60	=60	=60	=60
1r	.	1r	.	4c]	.	4e]	.
.	.	.	.	4c	com-	4e	com-
.	.	.	.	4d	-men-	4f	-men-
.	.	.	.	4c	-do	4e	-do
!!LO:LB:g=original
=61	=61	=61	=61	=61	=61	=61	=61
1r	.	1r	.	4d	Ma-	4f	Ma-
.	.	.	.	4.e	-ri-	4.g	-ri-
.	.	.	.	8d	.	8f	.
.	.	.	.	4c	.	4e	.
=62	=62	=62	=62	=62	=62	=62	=62
1r	.	1r	.	8dL	.	8fL	.
.	.	.	.	8c	.	8e	.
.	.	.	.	8B	.	8d	.
.	.	.	.	8AJ	.	8cJ	.
.	.	.	.	2B	.	2d	.
=63	=63	=63	=63	=63	=63	=63	=63
1r	.	1r	.	1c	-a.	1e	-a.
=64	=64	=64	=64	=64	=64	=64	=64
1C	Je-	1c	Je-	1G	Je-	1e	Je-
=65	=65	=65	=65	=65	=65	=65	=65
2C	-su,	2c	-su,	2G	-su,	2e	-su,
[2C	fi-	[2G	fi-	[2c	fi-	[2g	fi-
=66	=66	=66	=66	=66	=66	=66	=66
2C]	.	2G]	.	2c]	.	2g]	.
2BB	-li	2B	-li	2d	-li	2g	-li
!!LO:PB:g=original
=67	=67	=67	=67	=67	=67	=67	=67
1AA	De-	1c	De-	1e	De-	1a	De-
=68	=68	=68	=68	=68	=68	=68	=68
1E;	-i,	1B;	-i,	1e;	-i,	1g;	-i,
=69	=69	=69	=69	=69	=69	=69	=69
1E	tu	1B	tu	1e	tu	1g	tu
=70	=70	=70	=70	=70	=70	=70	=70
2D	mi-	2d	mi-	2f	mi-	2a	mi-
2E	-se-	2B	-se-	2e	-se-	2g	-se-
=71	=71	=71	=71	=71	=71	=71	=71
1C	-re-	1e	-re-	1g	-re-	1cc	-re-
=72	=72	=72	=72	=72	=72	=72	=72
1GG;	-re	1d;	-re	1g;	-re	1b;	-re
!!LO:LB:g=original
=73	=73	=73	=73	=73	=73	=73	=73
2C	me-	2c	me-	2G	me-	2e	me-
4F	.	4d	.	4A	.	4f	.
[4E	.	[4e	.	4G	.	[4g	.
=74	=74	=74	=74	=74	=74	=74	=74
4E]	.	4e]	.	4g	.	4g]	.
4A	.	4c	.	4f	.	4a	.
2G	.	2d	.	2g	.	[2b	.
=75	=75	=75	=75	=75	=75	=75	=75
*lig	*	*lig	*	*lig	*	*	*
1F	.	1A	.	2c	.	4b]	.
.	.	.	.	.	.	4a	.
.	.	.	.	2d	.	[2a	.
=76	=76	=76	=76	=76	=76	=76	=76
1E	.	1B	.	1e	.	2a]	.
*Xlig	*	*Xlig	*	*Xlig	*	*	*
.	.	.	.	.	.	2g#i	.
.	.	.	.	.	.	.	.
=77	=77	=77	=77	=77	=77	=77	=77
1AAl	-i.	1Al	-i.	1el	-i.	1al	-i.
==	==	==	==	==	==	==	==
*-	*-	*-	*-	*-	*-	*-	*-
!!!system-decoration: [*]
!!!RDF**kern: j = editorial accidental, optional, paren up
!!!RDF**kern: i = editorial accidental
!!!RDF**kern: l = terminal breve
!!!PTL: Gaspar van Weerbeke: Collected Works. IV. Motets
!!!ISBN: 978-1-59551-500-1 / 1-59551-500-3
!!!PPR: American Institute of Musicology
!!!PC#: Corpus Mensurabilis Musicae 106/IV
!!!PDT: 2010
!!!PED: Pavanello, Agnese
!!!YEC: Copyright 2008, Pavanello, Agnese
!!!YEM: CC-BY-NC 4.0 (https://creativecommons.org/licenses/by-nc/4.0/legalcode)
!!!EED: Mair-Gruber, Roland
!!!EEV: 2021/08/10
!!!muse2ps: C^@{COM}^i2I150v90,90,90,120c122z18l2700t130
